X: 11
T:Mhairi's Wedding (A)
M:4/4
L:1/8
Q:120
R:March
K:A
"A"E>EEF ABc2|"D"BAFA "A"cBce|E>EEF ABc2|"D"BAFD "E"E2E2:||!
|"A"e>eef edc2|"D"BAFA "A" cBce|e>eef edc2|"D"BAFD "E"E2E2|!
"A"e>eef edc2|"D"BAFA "A"cBce|E>EEF ABc2|"D"BAFD "E"E2E2|
